!!!COM: Palestrina, Giovanni Perluigi da
!!!OPR: Missa Laudate Dominum
!!!OTL: Benedictus
**kern	**kern	**kern	**kern	**kern	**kern	**kern	**kern
*Ibass	*Itenor	*Icalto	*Icant	*Ibass	*Itenor	*Icalto	*Icant
!Bassus	!Tenor	!Altus	!Cantus	!Bassus	!Tenor	!Altus	!Cantus
*clefF4	*clefGv2	*clefG2	*clefG2	*clefF4	*clefGv2	*clefG2	*clefG2
*k[b-]	*k[b-]	*k[b-]	*k[b-]	*k[b-]	*k[b-]	*k[b-]	*k[b-]
*F:ion	*F:ion	*F:ion	*F:ion	*F:ion	*F:ion	*F:ion	*F:ion
*M4/2	*M4/2	*M4/2	*M4/2	*M4/2	*M4/2	*M4/2	*M4/2
=1	=1	=1	=1	=1	=1	=1	=1
0r	0r	0c	1r	0r	0r	0r	0r
.	.	.	1cc	.	.	.	.
=2	=2	=2	=2	=2	=2	=2	=2
0r	0r	1d	1b-	0r	0r	0r	0r
.	.	1f	1a	.	.	.	.
=3	=3	=3	=3	=3	=3	=3	=3
0r	0r	2e	2g	0r	0r	0r	0r
.	.	2d	2.a	.	.	.	.
.	.	2c	.	.	.	.	.
.	.	.	4g	.	.	.	.
.	.	[2d	4f	.	.	.	.
.	.	.	4e	.	.	.	.
=4	=4	=4	=4	=4	=4	=4	=4
0r	0r	4d]	2f	0r	0r	0r	0r
.	.	4c	.	.	.	.	.
.	.	4B-	2.g	.	.	.	.
.	.	4A	.	.	.	.	.
.	.	2B-	.	.	.	.	.
.	.	.	4f	.	.	.	.
.	.	2A	[2f	.	.	.	.
=5	=5	=5	=5	=5	=5	=5	=5
0C	1r	0G	2f]	0r	0r	0r	0r
.	.	.	4e	.	.	.	.
.	.	.	4d	.	.	.	.
.	1c	.	1e	.	.	.	.
=6	=6	=6	=6	=6	=6	=6	=6
1D	1B-	2r	0f	0r	0r	0r	0r
.	.	2d	.	.	.	.	.
1F	1A	2.c	.	.	.	.	.
.	.	4d	.	.	.	.	.
=7	=7	=7	=7	=7	=7	=7	=7
2E	2G	2e	0r	0r	0r	0r	0r
2D	2.A	2f	.	.	.	.	.
2C	.	2e	.	.	.	.	.
.	4G	.	.	.	.	.	.
[2D	4F	2A	.	.	.	.	.
.	4E	.	.	.	.	.	.
=8	=8	=8	=8	=8	=8	=8	=8
4D]	2F	1.d	0r	0r	0r	0r	0r
4C	.	.	.	.	.	.	.
4BB-	2.G	.	.	.	.	.	.
4AA	.	.	.	.	.	.	.
2BB-	.	.	.	.	.	.	.
.	4F	.	.	.	.	.	.
2AA	[2F	2c	.	.	.	.	.
=9	=9	=9	=9	=9	=9	=9	=9
1GG	2F]	1B	0g	0r	0r	0r	0r
.	4E	.	.	.	.	.	.
.	4D	.	.	.	.	.	.
1C	1E	1c	.	.	.	.	.
=10	=10	=10	=10	=10	=10	=10	=10
1FF	1F	2r	1a	0r	0r	0r	0r
.	.	1f	.	.	.	.	.
1r	1r	.	1cc	.	.	.	.
.	.	2e	.	.	.	.	.
=11	=11	=11	=11	=11	=11	=11	=11
2r	0r	2d	2b-	0r	0r	0r	0r
2F	.	1c	2a	.	.	.	.
2E	.	.	2g	.	.	.	.
2D	.	2f	[2a	.	.	.	.
=12	=12	=12	=12	=12	=12	=12	=12
2C	0r	2e	4a]	0r	0r	0r	0r
.	.	.	4g	.	.	.	.
2D	.	1d	4f	.	.	.	.
.	.	.	4e	.	.	.	.
2BB-	.	.	2f	.	.	.	.
2C	.	[2c	2e	.	.	.	.
=13	=13	=13	=13	=13	=13	=13	=13
1GG	0G	2c]	2d	0r	0r	0r	0r
.	.	2B	2d	.	.	.	.
1C	.	1c	4e	.	.	.	.
.	.	.	4f	.	.	.	.
.	.	.	4g	.	.	.	.
.	.	.	4e	.	.	.	.
=14	=14	=14	=14	=14	=14	=14	=14
2r	1A	1F	4f	0r	0r	0r	0r
.	.	.	4g	.	.	.	.
1F	.	.	2a	.	.	.	.
.	1c	1r	1g	.	.	.	.
2E	.	.	.	.	.	.	.
=15	=15	=15	=15	=15	=15	=15	=15
1D	2B-	0r	2r	0r	0r	0r	0r
.	2A	.	1f	.	.	.	.
2BB-	2G	.	.	.	.	.	.
2C	[2A	.	2e	.	.	.	.
=16	=16	=16	=16	=16	=16	=16	=16
2.D	4A]	1r	1d	0r	0r	0r	0r
.	4G	.	.	.	.	.	.
.	4F	.	.	.	.	.	.
4C	4E	.	.	.	.	.	.
4AA	2F	2r	1c	.	.	.	.
4BB-	.	.	.	.	.	.	.
[2C	2E	2c	.	.	.	.	.
=17	=17	=17	=17	=17	=17	=17	=17
2C]	1D	2d	1r	0r	0r	0r	0r
2BB	.	1f	.	.	.	.	.
1C	1C	.	2r	.	.	.	.
.	.	2e	[2cc	.	.	.	.
=18	=18	=18	=18	=18	=18	=18	=18
1r	1G	1d	2cc]	0r	0r	0r	0r
.	.	.	2b-	.	.	.	.
1F	2r	[1c	1a	.	.	.	.
.	2F	.	.	.	.	.	.
=19	=19	=19	=19	=19	=19	=19	=19
2E	2G	2c]	2g	0r	0r	0r	0r
2D	2B-	2F	2f	.	.	.	.
1C	2A	2.c	2r	.	.	.	.
.	[2G	.	2e	.	.	.	.
.	.	4B-	.	.	.	.	.
=20	=20	=20	=20	=20	=20	=20	=20
1D	4G]	1A	1a	0r	0r	0r	0r
.	4F	.	.	.	.	.	.
.	2F	.	.	.	.	.	.
1BB-	2.B-	1d	2g	.	.	.	.
.	.	.	2f	.	.	.	.
.	4A	.	.	.	.	.	.
=21	=21	=21	=21	=21	=21	=21	=21
0C	4G	1.c	2e	1r	1r	1r	1r
.	4E	.	.	.	.	.	.
.	2A	.	1f	.	.	.	.
.	1G	.	.	2r	2r	2r	2r
.	.	2c	2e	2C	2c	2c	2g
=22	=22	=22	=22	=22	=22	=22	=22
1FF	1F	1c	1f	2.F	2.A	2.c	2.a
.	.	.	.	4F	4F	4c	4a
1r	1r	1r	1r	2F	2c	2f	2a
.	.	.	.	4BB-	[2d	[2f	[2b-
.	.	.	.	4C	.	.	.
=23	=23	=23	=23	=23	=23	=23	=23
0r	0r	0r	0r	4D	2d]	2f]	2b-]
.	.	.	.	4E	.	.	.
.	.	.	.	1F	4c	2f	4a
.	.	.	.	.	4B-	.	4g
.	.	.	.	.	2c	4F	2a
.	.	.	.	.	.	4G	.
.	.	.	.	2D	2d	4A	2f
.	.	.	.	.	.	4B-	.
=24	=24	=24	=24	=24	=24	=24	=24
0r	0r	0r	0r	[0C	1G	2c	0e
.	.	.	.	.	.	2c	.
.	.	.	.	.	2r	2.g	.
.	.	.	.	.	2G	.	.
.	.	.	.	.	.	4g	.
=25	=25	=25	=25	=25	=25	=25	=25
0r	0r	0r	0r	1C]	2.c	2g	2r
.	.	.	.	.	.	4c	2g
.	.	.	.	.	4c	4d	.
.	.	.	.	1r	2c	4e	2.cc
.	.	.	.	.	.	8d	.
.	.	.	.	.	.	8e	.
.	.	.	.	.	4F	2f	.
.	.	.	.	.	4G	.	4cc
=26	=26	=26	=26	=26	=26	=26	=26
0r	0r	0r	0r	0r	4A	2e	2cc
.	.	.	.	.	8G	.	.
.	.	.	.	.	8A	.	.
.	.	.	.	.	2B-	2d	4f
.	.	.	.	.	.	.	4g
.	.	.	.	.	4F	2.c	4a
.	.	.	.	.	4G	.	4b-
.	.	.	.	.	4A	.	[2cc
.	.	.	.	.	4B-	4d	.
=27	=27	=27	=27	=27	=27	=27	=27
0r	0r	0r	0r	1r	2c	2e	2cc]
.	.	.	.	.	2F	1f	2a
.	.	.	.	2r	2c	.	1g
.	.	.	.	2C	2c	2e	.
=28	=28	=28	=28	=28	=28	=28	=28
0r	0r	0r	0r	2.F	2.A	2f	1f
.	.	.	.	.	.	2c	.
.	.	.	.	4F	4A	.	.
.	.	.	.	2F	2c	2A	1r
.	.	.	.	4BB-	[2d	2B-	.
.	.	.	.	4C	.	.	.
=29	=29	=29	=29	=29	=29	=29	=29
0r	0r	0r	0r	4D	4d]	1A	1r
.	.	.	.	4E	4c	.	.
.	.	.	.	1F	1c	.	.
.	.	.	.	.	.	2.d	2r
.	.	.	.	2G	2B	.	2d
.	.	.	.	.	.	4d	.
=30	=30	=30	=30	=30	=30	=30	=30
0r	0r	0r	0r	[0C	2c	0e	2.g
.	.	.	.	.	2C	.	.
.	.	.	.	.	.	.	4g
.	.	.	.	.	2.G	.	2g
.	.	.	.	.	.	.	4c
.	.	.	.	.	4G	.	4d
=31	=31	=31	=31	=31	=31	=31	=31
0r	0r	0r	0r	0C]	2G	1r	4e
.	.	.	.	.	.	.	4f
.	.	.	.	.	4C	.	1g
.	.	.	.	.	4D	.	.
.	.	.	.	.	4E	2r	.
.	.	.	.	.	4F	.	.
.	.	.	.	.	4G	2c	2e
.	.	.	.	.	4A	.	.
=32	=32	=32	=32	=32	=32	=32	=32
0r	0r	0r	0r	0r	2B	2.g	2d
.	.	.	.	.	1c	.	2.e
.	.	.	.	.	.	4g	.
.	.	.	.	.	.	2g	.
.	.	.	.	.	.	.	4d
.	.	.	.	.	2A	4c	4e
.	.	.	.	.	.	4d	4f
=33	=33	=33	=33	=33	=33	=33	=33
0r	0r	0r	0r	0r	[0G	4e	4g
.	.	.	.	.	.	4f	4a
.	.	.	.	.	.	1g	4b
.	.	.	.	.	.	.	4cc
.	.	.	.	.	.	.	2dd
.	.	.	.	.	.	2e	[2cc
=34	=34	=34	=34	=34	=34	=34	=34
0r	0r	0r	0r	2r	1G]	1d	2cc]
.	.	.	.	2GG	.	.	2b
.	.	.	.	[1C	2r	1e	2cc
.	.	.	.	.	2c	.	2g
=35	=35	=35	=35	=35	=35	=35	=35
0r	0r	0r	0r	2C]	2.c	2.e	2.g
.	.	.	.	2C	.	.	.
.	.	.	.	.	4c	4e	4g
.	.	.	.	2C	1c	2e	2g
.	.	.	.	4FF	.	[2f	[2a
.	.	.	.	4GG	.	.	.
=36	=36	=36	=36	=36	=36	=36	=36
0r	0r	0r	0r	4AA	1.c	2f]	2a]
.	.	.	.	4BB-	.	.	.
.	.	.	.	1C	.	4e	4g
.	.	.	.	.	.	4d	4f
.	.	.	.	.	.	2e	2g
.	.	.	.	2FF	2c	2f	2a
=37	=37	=37	=37	=37	=37	=37	=37
0r	0r	0r	0r	1BB-	1d	1f	1b-
.	.	.	.	1r	1r	1r	1r
=38	=38	=38	=38	=38	=38	=38	=38
1BB-	0F	0d	0b-	0BB-	1B-	0f	0dd
2.D	.	.	.	.	[1B-	.	.
4C	.	.	.	.	.	.	.
=39	=39	=39	=39	=39	=39	=39	=39
2.BB-	1F	2.d	0b-	2.D	2B-]	0f	0dd
.	.	.	.	.	1F	.	.
4C	.	4e	.	4C	.	.	.
2D	[1F	[1f	.	1BB-	.	.	.
2E	.	.	.	.	2G	.	.
=40	=40	=40	=40	=40	=40	=40	=40
1F	2F]	2f]	1a	[0FF	[0A	[0f	[0cc
.	2G	4e	.	.	.	.	.
.	.	4d	.	.	.	.	.
[1F	2.A	2c	[1a	.	.	.	.
.	.	2F	.	.	.	.	.
.	4B-	.	.	.	.	.	.
=41	=41	=41	=41	=41	=41	=41	=41
2F]	2c	2f	2a]	0FF]	0A]	0f]	0cc]
2F	1c	2f	2a	.	.	.	.
1F	.	1f	1a	.	.	.	.
.	2c	.	.	.	.	.	.
=42	=42	=42	=42	=42	=42	=42	=42
0C	1c	[0e	0g	2r	2r	2r	2r
.	.	.	.	1C	1E	1g	1cc
.	2G	.	.	.	.	.	.
.	[2C	.	.	2C	2E	2g	2cc
=43	=43	=43	=43	=43	=43	=43	=43
2r	4C]	1e]	2r	1C	2G	1e	1cc
.	4D	.	.	.	.	.	.
1G	4E	.	1g	.	2C	.	.
.	4F	.	.	.	.	.	.
.	4G	2r	.	[1GG	2D	[1d	2.b-
.	4A	.	.	.	.	.	.
2G	4B-	[2g	2g	.	4G	.	.
.	4c	.	.	.	4A	.	4a
=44	=44	=44	=44	=44	=44	=44	=44
1G	2d	2g]	1b-	1GG]	4B-	1d]	1g
.	.	.	.	.	4c	.	.
.	2B-	2g	.	.	1d	.	.
[1D	[1d	[1f	4a	2r	.	2r	2r
.	.	.	4g	.	.	.	.
.	.	.	4f	[2BB-	[2D	[2B-	[2dd
.	.	.	4e	.	.	.	.
=45	=45	=45	=45	=45	=45	=45	=45
1D]	2d]	1f]	2d	2BB-]	2D]	2B-]	2dd]
.	2.D	.	2f	2BB-	1F	2B-	2dd
[1F	.	2r	2f	1BB-	.	1d	[1b-
.	4C	.	.	.	.	.	.
.	4D	[2f	2f	.	2F	.	.
.	4E	.	.	.	.	.	.
=46	=46	=46	=46	=46	=46	=46	=46
2F]	2F	2f]	0cc	0FF	0F	[0c	2b-]
2F	1A	1c	.	.	.	.	4a
.	.	.	.	.	.	.	4g
1F	.	.	.	.	.	.	1a
.	2A	[2f	.	.	.	.	.
=47	=47	=47	=47	=47	=47	=47	=47
0C	0c	2f]	1cc	0C	0G	1c]	1g
.	.	4e	.	.	.	.	.
.	.	4d	.	.	.	.	.
.	.	1e	1g	.	.	2r	[1cc
.	.	.	.	.	.	2c	.
=48	=48	=48	=48	=48	=48	=48	=48
2.F	1c	[0f	1a	1r	[0F	2A	1cc]
.	.	.	.	.	.	2c	.
4E	.	.	.	.	.	.	.
2D	1F	.	2.b-	[1BB-	.	4B-	1dd
.	.	.	.	.	.	4c	.
2BB-	.	.	.	.	.	4d	.
.	.	.	4cc	.	.	4e	.
=49	=49	=49	=49	=49	=49	=49	=49
2.BB-	1D	0f]	0dd	2BB-]	0F]	2f	0b-
.	.	.	.	2BB-	.	1d	.
4C	.	.	.	.	.	.	.
2.D	2.F	.	.	1BB-	.	.	.
.	.	.	.	.	.	[2f	.
4E	4G	.	.	.	.	.	.
=50	=50	=50	=50	=50	=50	=50	=50
0F	0A	[0f	[0cc	[0FF	[0F	2f]	[0a
.	.	.	.	.	.	4e	.
.	.	.	.	.	.	4d	.
.	.	.	.	.	.	1c	.
=51	=51	=51	=51	=51	=51	=51	=51
0F	0A	0f]	0cc]	0FF]	0F]	0c	0a]
==	==	==	==	==	==	==	==
*-	*-	*-	*-	*-	*-	*-	*-
!!!CDT: 1525/^1526/-1594/2/2
!!!OCY: Italia
!!!AGN: Mass (Parody)
!!!AST: renaissance, vocal
!!!ASW: Motet 1572 (Palestrina)
!!!PWK: Masses, Book 8vce
!!!RNB: Cadence finals: C
!!!YOR: Le Opere Complete, v. 30, p. 1
!!!YOO: Rome, Italy: Fratelli Scalera
!!!END: 1992//
!!!EED: John Miller
!!!YEC: Copyright 2000, John Miller
!!!YEN: United States of America
!!!YEM: Rights to all derivative electronic formats reserved.
!!!YEM: Refer to licensing agreement for further details.
!!!YEM: This file must be accompanied by the licensing agreement.
!!!YEM: A copy of the licensing agreement may be found at http://www.music-cog.ohio-state.edu/HumdrumDatabases/Palestrina/license.txt
!!!EMD: converted to Humdrum by Bret Aarden
